!!!!SEGMENT: pl-kc--40102-iii-1-saf--001-017_zielenski-mikolaj--offertoria-totius-anni-dominica-resurrectionis-terra-tremuit.krn
!!!cenid: 16xx:1495
!!!COM: Zieleński, Mikołaj
!!!COM-rismID: pe30013481
!!!CDT: <1611->1611
!!!CNT: Polish
!!!GTL: Offertoria totius anni
!!!OTL: Dominica Resurrectionis/Terra tremuit
!!!OMV: 017
!!!PDT: 1611
!!!AGN:
!!!SMS-siglum: PL-Kc
!!!SMS-shelfmark: 40102 III/1 Saf.
!!!SMS-shelfwork: 001-017 G
!!!SMS-variant:
!!!SMS-altvar:
!!!NIFC-rismSourceID: 990069886
!!!NIFC-rismChildID: 990069886
!!!NIFC-islandoraID: none
!!!URL-pdf-islandora:
!!!URL-scan: https://cyfrowe.mnk.pl/dlibra/publication/24235/edition/23926/content?ref=desc @EN{Scan on The National Museum in Krakow Website} @PL{Skany w portalu Biblioteka Cyfrowa Muzeum Narodowego w Krakowie}
!!!IIIF:
!!!ONB-nifc: UWAGA: str. 16-17. Uwaga: W xml metrum 2/1 do źródłowego C| i odpowiednio 3/1 do 3/2
!!!AIN: 4 organ
!!!key:
**kern	**kern	**kern	**kern
*group1	*group1	*group1	*group1
*part4	*part3	*part2	*part1
*staff4	*staff3	*staff2	*staff1
*I""Organo	*I""Organo	*I""Organo	*I""Organo
*I''org	*I''org	*I''org	*I''org
*Iorgan	*Iorgan	*Iorgan	*Iorgan
*ICklav	*ICklav	*ICklav	*ICklav
*clefF5	*clefC3	*clefF3	*clefG2
*k[b-]	*k[b-]	*k[b-]	*k[b-]
*F:	*F:	*F:	*F:
*M2/1	*M2/1	*M2/1	*M2/1
*met(C|)	*met(C|)	*met(C|)	*met(C|)
=1	=1	=1	=1
!	!	!LO:TX:a:t=Terra tremuit.	!LO:TX:a:t=Dominica Reſurrectionis. A 8.
1.FF	1.f	1.F	1.cc
2FF/	2f\	2F/	2cc\
=2-	=2-	=2-	=2-
1BB-	1.f	4D/	4.dd\
.	.	4E/	.
.	.	.	8cc\
.	.	4F/	8dd\
.	.	.	8cc\
.	.	4D/	8dd\
.	.	.	8cc\
2GG/	.	2G\	2dd\
2CC/	2g\	2G\	2ee\
=3	=3	=3	=3
1FF	1c	2F/	2ff\
.	.	1F	1cc
1r	1r	.	.
.	.	2F/	2cc\
=4-	=4-	=4-	=4-
0r	0r	4.B-\	1.dd
.	.	8A\	.
.	.	8B-\	.
.	.	8A\	.
.	.	8B-\	.
.	.	8G\	.
.	.	2d\	.
.	.	2d\	2ff\
=5	=5	=5	=5
1r	1r	1c	1ee
1.CC	1.e	0C	1.gg
=6-	=6-	=6-	=6-
.	.	.	.
2CC/	2e\	.	2ee\
2.FF/	2c/	2C/	[y1ff
.	2c/	[<2AA/	.
4EE/	.	.	.
=7	=7	=7	=7
!	!	!	!LO:N:xstem:cue:vis=4
2DD/	1f	2AA/]	2ff\]
2DD/	.	2D/	2dd\
1GG	1r	1D	2b-\
.	.	.	2.gg\
=8-	=8-	=8-	=8-
1.CC	1.g	2.E/	.
.	.	.	4ff\
.	.	.	4ee\
.	.	4D/	4ff\
.	.	2C/	4ee\
.	.	.	4dd\
2CC/	2e\	2C/	[y2cc\
=9	=9	=9	=9
!	!	!	!LO:N:xstem:cue
1GG	1d	1D	4cc\]
!	!	!	!LO:N:acc=#
.	.	.	8bn/
.	.	.	8a/
.	.	.	2b/
1CC	1g	2C/	2cc\
.	.	1c	1ee
=10-	=10-	=10-	=10-
0r	0r	.	.
.	.	2A\	2ee\
.	.	2.d\	2.ff\
.	.	4c\	4ee\
=11	=11	=11	=11
1r	1r	1B-	1dd
2r	2r	1A	1cc#X
1AA	1e	.	.
=12-	=12-	=12-	=12-
.	.	0r	0r
2AA/	2e\	.	.
2.D\	2.f\	.	.
4C\	4e\	.	.
=13	=13	=13	=13
1BB-	1d	1r	1r
1AA	1c#X	2r	2r
.	.	4A\	4ee\
.	.	4A\	4ee\
=14-	=14-	=14-	=14-
2r	2r	4.D/	4.ff\
.	.	8D/	8ff\
4GG/	4g\	2G\	2dd\
4GG/	4g\	.	.
4.C\	4.e\	2r	2r
8C\	8e\	.	.
2FF/	2f\	4F/	4cc\
.	.	4D/	4ff\
=15	=15	=15	=15
0r	0r	4.G\	4.dd\
.	.	8G\	8dd\
.	.	4C/	4ee\
.	.	2c\	2ee\
.	.	4A\	4ff\
.	.	4.B-\	4.dd\
.	.	8B-\	8dd\
=16-	=16-	=16-	=16-
2r	2r	1F	1cc
4FF/	4a\	.	.
4FF/	4a\	.	.
4.C\	4.g\	1r	1r
8C\	8g\	.	.
[y2FF/	[y2a\	.	.
=17	=17	=17	=17
!LO:N:xstem:cue	!LO:N:xstem:cue	!	!
4FF/]	4a\]	00r	00r
2FF/	2a\	.	.
4EE/	4g\	.	.
2FF/	2f\	.	.
2GG/	2d\	.	.
=18-	=18-	=18-	=18-
4CC/	4d\	.	.
2C\	2e\	.	.
4BB-/	4d\	.	.
4.AA/	4e\	.	.
.	4f\	.	.
8AA/	.	.	.
2GG/	[<2g\	.	.
*custos:DD	*custos:g	*custos:G	*custos:dd
!!LO:LB:g=original
=19	=19	=19	=19
1DD	4g\]	1r	1r
.	8f#X\	.	.
.	8e\	.	.
.	2f#\	.	.
1GG	1g	2r	2r
.	.	4G\	4dd\
.	.	4G\	4dd\
=20-	=20-	=20-	=20-
0r	0r	4.C/	4.ee\
.	.	8C/	8ee\
.	.	2F/	2cc\
.	.	4F/	4cc\
.	.	4D/	4dd\
.	.	4.G\	4.b-/
.	.	8G\	8b-/
=21	=21	=21	=21
00r	00r	4D/	4a/
.	.	2D/	2ff\
.	.	4A\	4ee\
.	.	2B-\	2dd\
.	.	2F/	2cc\
=22-	=22-	=22-	=22-
.	.	2.G\	2b-/
.	.	.	2.dd\
.	.	4F/	.
.	.	2E-X/	.
.	.	.	4cc\
.	.	4D/	[y2cc\
.	.	4C/	.
=23	=23	=23	=23
!	!	!	!LO:N:xstem:cue
1r	1r	1G	4cc\]
!	!	!	!LO:N:acc=#
.	.	.	8bn/
.	.	.	8a/
.	.	.	2b/
2r	2r	1C	1cc
4CC/	4g\	.	.
4CC/	4g\	.	.
=24-	=24-	=24-	=24-
4.AA/	4.f\	2r	2r
8AA/	8f\	.	.
2CC/	2e\	4C/	4gg\
.	.	4C/	4gg\
2r	2r	4.F/	4.ff\
.	.	8F/	8ff\
4CC/	4g\	2C/	2ee\
4CC/	4g\	.	.
=25	=25	=25	=25
4.FF/	4.f\	2r	2r
8FF/	8f\	.	.
2CC/	2e\	4C/	4gg\
.	.	4C/	4gg\
1r	1r	4.F/	4.ff\
.	.	8F/	8ff\
.	.	2C/	2ee\
=26-	=26-	=26-	=26-
4DD/	4A/	4D/	4dd\
4DD/	4A/	4D/	4ff\
4.AA/	4.A/	4.E/	4.ee\
8AA/	8A/	8AA/	8ee\
1DD	1A	1D	[y1dd
=27	=27	=27	=27
!	!	!	!LO:N:xstem:cue:vis=4
1.GG	2G/	1.D	2dd\]
.	2d\	.	1gg
.	2d\	.	.
2GG/	2g\	2D/	2gg\
=28-	=28-	=28-	=28-
1.CC	0e	2.E/	4gg\
.	.	.	4ff\
.	.	.	4ee\
.	.	4F/	4dd\
.	.	2G\	2ee\
2CC/	.	2C/	2ee\
=29	=29	=29	=29
1FF	2.f\	1C	2cc\
.	.	.	2.ff\
.	8e\	.	.
.	8d\	.	.
1CC	4e\	1G	.
.	4f\	.	8ee\
.	.	.	8dd\
.	4g\	.	2ee\
.	4e\	.	.
=30-	=30-	=30-	=30-
*M3/2	*M3/2	*M3/2	*M3/2
0.FF	0.a	0.F	0.ff
=31-	=31-	=31-	=31-
0.r	0.r	1F	1cc
.	.	1D	1ff
.	.	1G	1dd
=32	=32	=32	=32
1C	1g	1C	1ee
1AA	1a	1r	1r
1DD	1f#X	1r	1r
=33-	=33-	=33-	=33-
1GG	1g	1G	1dd
1r	1r	1D	1gg
1r	1r	1A	1ee
=34-	=34-	=34-	=34-
1DD	1a	1D	1dd
1DD	1fny	1r	1r
1AA	1e	1r	1r
=35-	=35-	=35-	=35-
0DD	0f#X	0.r	0.r
1GG	1g	.	.
=36	=36	=36	=36
0CC	0g	0.r	0.r
1FF	1f	.	.
=37-	=37-	=37-	=37-
0CC	0e	1C	1gg
.	.	1C	1ee
1r	1r	1G	1dd
=38-	=38-	=38-	=38-
00.r	00.r	0C	0ee
.	.	1F	1cc
=39-	=39-	=39-	=39-
.	.	0D	1.dd
.	.	.	2cc\
.	.	1G	1b-
=40	=40	=40	=40
1FF	1c	0F	0a
1DD	1d	.	.
1GG	1d	1r	1r
=41-	=41-	=41-	=41-
1CC	1e	1c	1ee
1r	1r	1A	1ee
1r	1r	1d	1ff
=42-	=42-	=42-	=42-
0.r	0.r	0.c	2gg\
.	.	.	2ff\
.	.	.	2ee\
.	.	.	2dd\
.	.	.	1ee
=43-	=43-	=43-	=43-
1FF	1a	1C	1ff
1DD	1a	1D	1ff
1AA	1e	1E	1ee
=44	=44	=44	=44
0DD	0a	0D	0ff#X
1GG	1d	1D	1gg
=45-	=45-	=45-	=45-
2CC/	0g	0C	0ee
2DD/	.	.	.
2EE/	.	.	.
2CC/	.	.	.
1FF	1c	1C	1ffny
=46-	=46-	=46-	=46-
0CC	0c	0C	0ee
1GG	1G	1D	1dd
=47-	=47-	=47-	=47-
0DD	1.d	0D	0ff
.	2A/	.	.
1AA	1a	1E	1ee
*custos:DD	*custos:f	*custos:F	*custos:dd
!!LO:LB:g=original
=48	=48	=48	=48
0DD	0f#X	1.F#X	0dd
.	.	2E/	.
1GG	1g	1D	1dd
=49-	=49-	=49-	=49-
1CC	1g	1E	1.gg
0GG	0d	0D	.
.	.	.	2ff\
.	.	.	1dd
=50-	=50-	=50-	=50-
*M2/1	*M2/1	*M2/1	*M2/1
*met(C|)	*met(C|)	*met(C|)	*met(C|)
0r	1g	2C/	2ee\
.	.	4C/	4gg\
.	.	4C/	4gg\
.	1r	4.F\	4.ff\
.	.	8F\	8ff\
.	.	4C/	4ee\
.	.	[<4c\	[<4ee\
=51	=51	=51	=51
1r	1r	4c\]	4ee\]
.	.	4A\	4ff\
.	.	4.B-\	4.dd\
.	.	8B-\	8dd\
2r	2r	1F	1cc
4FF/	4a\	.	.
4FF/	4a\	.	.
=52-	=52-	=52-	=52-
4.C\	4.g\	0r	0r
8C\	8g\	.	.
4FF/	4a\	.	.
2FF/	2a\	.	.
4EE/	4g\	.	.
4FF/	4f\	.	.
4GG/	4d\	.	.
=53	=53	=53	=53
4CC/	4e\	0r	0r
2C\	2e\	.	.
4BB-\	4d\	.	.
4.AA/	4e\	.	.
.	4f\	.	.
8AA/	.	.	.
2GG/	2.g\	.	.
=54-	=54-	=54-	=54-
1DD	.	1r	1r
.	8f#X\	.	.
.	8e\	.	.
.	2f#\	.	.
1GG	1g	2r	2r
.	.	4G\	4dd\
.	.	4G\	4dd\
=55	=55	=55	=55
00r	00r	4.C/	4.ee\
.	.	8C/	8ee\
.	.	2F/	2cc\
.	.	4F/	4cc\
.	.	4D/	4dd\
.	.	4.G\	4.b-/
.	.	8G\	8b-/
=56-	=56-	=56-	=56-
.	.	4D/	4a/
.	.	2D/	2ff\
.	.	4A\	4ee\
.	.	2B-\	2dd\
.	.	2F/	2cc\
=57	=57	=57	=57
0r	0r	2.G\	2b-/
.	.	.	2.dd\
.	.	4F/	.
.	.	2E-X/	.
.	.	.	4cc\
.	.	4D/	2.cc\
.	.	4C/	.
=58-	=58-	=58-	=58-
1r	1r	1G	.
!	!	!	!LO:N:acc=#
.	.	.	8bn/
.	.	.	8a/
.	.	.	2b/
2r	2r	1C	1cc
4CC/	4g\	.	.
4CC/	4g\	.	.
=59	=59	=59	=59
4.FF/	4.f\	2r	2r
8FF/	8f\	.	.
2CC/	2e\	4C/	4gg\
.	.	4C/	4gg\
2r	2r	4.F/	4.ff\
.	.	8F/	8ff\
4CC/	4g\	2C/	2ee\
4CC/	4g\	.	.
=60-	=60-	=60-	=60-
4.AA/	4.f\	2r	2r
8AA/	8f\	.	.
2CC/	2e\	4C/	4gg\
.	.	4C/	4gg\
1r	1r	4.F/	4.ff\
.	.	8F/	8ff\
.	.	2C/	2ee\
=61	=61	=61	=61
4DD/	4A/	4D/	4dd\
4DD/	4A/	4D/	4ff\
4.AA/	4.A/	4.E/	4.ee\
8AA/	8A/	8AA/	8ee\
1DD	1A	1D	1dd
=62-	=62-	=62-	=62-
1.GG	2A/	1.D	2r
.	2d\	.	1gg
.	2d\	.	.
2GG/	2g\	2D/	2gg\
=63	=63	=63	=63
1.CC	0e	2.E/	4gg\
.	.	.	4ff\
.	.	.	4ee\
.	.	4F/	4dd\
.	.	2G\	2ee\
2CC/	.	2C/	2ee\
=64-	=64-	=64-	=64-
1FF	2.f\	1C	2cc\
.	.	.	2.ff\
.	8e\	.	.
.	8d\	.	.
1CC	4e\	1G	.
.	4f\	.	8ee\
.	.	.	8dd\
.	4g\	.	2ee\
.	4e\	.	.
=65	=65	=65	=65
*M3/2	*M3/2	*M3/2	*M3/2
0.FF	0.a	0.F	0.ff
=66-	=66-	=66-	=66-
0.r	0.r	1F	1cc
.	.	1D	1ff
.	.	1G	1dd
=67-	=67-	=67-	=67-
1C	1g	1C	1ee
1AA	1g	1r	1r
1DD	1f#X	1r	1r
=68-	=68-	=68-	=68-
1GG	1g	1G	1dd
1r	1r	1D	1ff
1r	1r	1A	1ee
=69	=69	=69	=69
1DD	1a	1D	1dd
1DD	1f	1r	1r
1AA	1e	1r	1r
=70-	=70-	=70-	=70-
0DD	0f#X	00.r	00.r
1GG	1g	.	.
=71-	=71-	=71-	=71-
0CC	0g	.	.
1FF	1fny	.	.
=72-	=72-	=72-	=72-
0CC	0e	1C	1gg
.	.	1C	1ee
1r	1r	1G	1dd
*custos:FF	*custos:c	*custos:C	*custos:ee
!!LO:PB:g=original
=73	=73	=73	=73
00.r	00.r	0C	0ee
.	.	1F	1cc
=74-	=74-	=74-	=74-
.	.	0D	1.dd
.	.	.	2cc\
.	.	1G	1b-
=75-	=75-	=75-	=75-
1FF	1c	0F	0a
1DD	1d	.	.
1GG	1d	1r	1r
=76-	=76-	=76-	=76-
1CC	1e	1c	1ee
1r	1r	1A	1ee
1r	1r	1d	1ff
=77	=77	=77	=77
0.r	0.r	0.c	2gg\
.	.	.	2ff\
.	.	.	2ee\
.	.	.	2dd\
.	.	.	1ee
=78-	=78-	=78-	=78-
1FF	1a	1C	1ff
1DD	1a	1D	1ff
1AA	1e	1E	1ee
=79-	=79-	=79-	=79-
0DD	0a	0D	0ff#X
1GG	1d	1D	1gg
=80-	=80-	=80-	=80-
2CC/	0g	0C	0ee
2DD/	.	.	.
2EE/	.	.	.
2CC/	.	.	.
1FF	1c	1C	1ffny
=81	=81	=81	=81
0CC	0c	0C	0ee
1GG	1G	1D	1dd
=82-	=82-	=82-	=82-
0DD	1.d	0D	0ff
.	2A/	.	.
1AA	1a	1E	1ee
=83-	=83-	=83-	=83-
0DD	0f#X	1.F#X	0dd
.	.	2E/	.
1GG	1g	1D	1dd
=84-	=84-	=84-	=84-
1CC	1g	1E	1.gg
0GG	0d	0D	.
.	.	.	2ff\
.	.	.	1dd
=85	=85	=85	=85
*M2/1	*M2/1	*M2/1	*M2/1
*met(C|)	*met(C|)	*met(C|)	*met(C|)
1CC	1g	1C	1ee
0FF	2r	.1C	1.ff
.	2.a\	.	.
=86-	=86-	=86-	=86-
.	.	.	.
.	4a\	.	.
.	2a\	2F/	1cc
1FF	1f	2A\	.
.	.	4G\	2dd\
.	.	4F/	.
=87	=87	=87	=87
0CC	2g\	2E/	4ee\
.	.	.	4cc\
.	2c/	2F/	2.ff\
.	1c	1G	.
.	.	.	8ee\
.	.	.	8dd\
.	.	.	2ee\
=88-	=88-	=88-	=88-
0FFl	0cl	0Fl	0ffl
==	==	==	==
*-	*-	*-	*-
!!!system-decoration: *
!!!RDF**kern: > = above
!!!RDF**kern: < = below
!!!RDF**kern: l = terminal long
!!!ENC: Anastazja Marusiak
!!!END: 2021-12-10
!!!ENC: Andrzej Kubiczek
!!!END: 2021-12-20
!!!YEC: Copyright 2022 Narodowy Instytut Fryderyka Chopina (https://polishscores.org)
!!!YEM: License CC-BY-4.0 (https://creativecommons.org/licenses/by/4.0)
